assets/icons/carriage/MEHRZWECKABTEIL.svg

<svg width="68" height="34" viewBox="0 0 68 34" fill="none" xmlns="http://www.w3.org/2000/svg">
<g clip-path="url(#clip0_131_22)">
<rect width="68" height="34" rx="17" fill="#414141"/>
<path d="M24.2831 16.0678C24.0433 15.8218 23.7084 15.692 23.3661 15.7107L19.223 15.9413L21.503 13.3446C21.8278 12.9747 21.9206 12.4816 21.7951 12.041C21.7288 11.7391 21.546 11.4644 21.2651 11.2889C21.2564 11.2827 15.8151 8.12168 15.8151 8.12168C15.3708 7.86358 14.8109 7.92044 14.4274 8.26244L11.7694 10.6335C11.2797 11.0703 11.2368 11.8214 11.6736 12.3111C12.1105 12.8008 12.8616 12.8438 13.3513 12.4069L15.3665 10.6093L17.0324 11.5767L14.0918 14.9258C12.8724 15.1246 11.7753 15.6865 10.9141 16.4966L12.4497 18.0323C13.1438 17.4011 14.0656 17.0158 15.0755 17.0158C17.2298 17.0158 18.9825 18.7685 18.9825 20.9228C18.9825 21.9328 18.5972 22.8544 17.9661 23.5486L19.5016 25.0842C20.5245 23.9968 21.1523 22.5336 21.1523 20.9228C21.1523 19.9631 20.9295 19.0556 20.5333 18.2486L22.137 18.1592L21.7469 22.9445C21.6936 23.5985 22.1806 24.1719 22.8347 24.2253C22.8675 24.228 22.9002 24.2293 22.9326 24.2293C23.545 24.2293 24.065 23.7587 24.1156 23.1375L24.6163 16.9937C24.6442 16.6514 24.5227 16.3137 24.2831 16.0678Z" fill="white"/>
<path d="M22.0828 10.978C23.1812 10.978 24.0716 10.0875 24.0716 8.98902C24.0716 7.89057 23.1812 7 22.0828 7C20.9842 7 20.0938 7.89057 20.0938 8.98902C20.0938 10.0875 20.9842 10.978 22.0828 10.978Z" fill="white"/>
<path d="M15.0768 24.8308C12.9225 24.8308 11.1698 23.0781 11.1698 20.9238C11.1698 20.1119 11.4189 19.3573 11.8445 18.7318L10.2923 17.1797C9.4835 18.2118 9 19.511 9 20.9238C9 24.28 11.7206 27.0006 15.0768 27.0006C16.4897 27.0006 17.7888 26.5171 18.8209 25.7083L17.2687 24.1562C16.6433 24.5816 15.8886 24.8308 15.0768 24.8308Z" fill="white"/>
<path d="M38.2646 27C36.5208 27 35.0408 26.4062 33.8245 25.2188C32.6082 24.0312 32 22.5938 32 20.9062C32 19.2188 32.614 17.7865 33.8419 16.6094C35.0697 15.4323 36.5547 14.8438 38.2969 14.8438C39.8253 14.8438 41.1655 15.3177 42.3172 16.2656C43.4689 17.2135 44.1632 18.4167 44.4 19.875H46.0469L43.399 12.625H41.0417V10.75H47.1125V12.625H45.4333L46.2729 14.8438H53.4417L51.149 8.875H47.7583V7H50.9552C51.4719 7 51.9078 7.11458 52.263 7.34375C52.6182 7.57292 52.8819 7.91667 53.0542 8.375L55.5083 14.8438H56.7354C58.4686 14.8438 59.946 15.4295 61.1676 16.6011C62.3892 17.7726 63 19.1895 63 20.8517C63 22.5339 62.3944 23.9792 61.1833 25.1875C59.9721 26.3958 58.4895 27 56.7354 27C55.194 27 53.8399 26.5 52.6731 25.5C51.5063 24.5 50.7937 23.25 50.5354 21.75H44.4C44.1632 23.25 43.4689 24.5 42.3172 25.5C41.1655 26.5 39.8146 27 38.2646 27ZM38.2646 25.125C39.2979 25.125 40.1967 24.8021 40.9609 24.1562C41.7252 23.5104 42.2365 22.7083 42.4948 21.75H38.6521V19.875H42.4948C42.2365 18.9375 41.7198 18.1771 40.9448 17.5938C40.1698 17.0104 39.2872 16.7188 38.2969 16.7188C37.0913 16.7188 36.0634 17.125 35.213 17.9375C34.3627 18.75 33.9375 19.7396 33.9375 20.9062C33.9375 22.0781 34.3573 23.0742 35.1969 23.8945C36.0365 24.7148 37.059 25.125 38.2646 25.125ZM48.1135 19.875H50.5677C50.6538 19.3958 50.8207 18.8646 51.0682 18.2812C51.3158 17.6979 51.6549 17.1771 52.0854 16.7188H46.951L48.1135 19.875ZM56.7354 25.125C57.941 25.125 58.9635 24.7148 59.8031 23.8945C60.6427 23.0742 61.0625 22.0781 61.0625 20.9062C61.0625 19.7396 60.6427 18.75 59.8031 17.9375C58.9635 17.125 57.941 16.7188 56.7354 16.7188H56.2187L57.4781 20.25L55.6698 20.8438L54.2812 17.3438C53.6569 17.6979 53.1887 18.1979 52.8766 18.8438C52.5644 19.4896 52.4083 20.1771 52.4083 20.9062C52.4083 22.0781 52.8281 23.0742 53.6677 23.8945C54.5073 24.7148 55.5299 25.125 56.7354 25.125Z" fill="white"/>
</g>
<defs>
<clipPath id="clip0_131_22">
<rect width="68" height="34" fill="white"/>
</clipPath>
</defs>
</svg>

<svg xmlns="http://www.w3.org/2000/svg" width="68" height="34" fill="none"><g clip-path="url(#a)"><rect width="68" height="34" fill="#414141" rx="17"/><path fill="#fff" d="M24.283 16.068a1.19 1.19 0 0 0-.917-.357l-4.143.23 2.28-2.596c.325-.37.418-.863.292-1.304a1.183 1.183 0 0 0-.53-.752l-5.45-3.167a1.188 1.188 0 0 0-1.388.14l-2.658 2.371a1.188 1.188 0 1 0 1.582 1.774l2.015-1.798 1.666.968-2.94 3.349a6.058 6.058 0 0 0-3.178 1.57l1.536 1.536a3.892 3.892 0 0 1 2.626-1.016 3.911 3.911 0 0 1 3.907 3.907c0 1.01-.386 1.931-1.017 2.626l1.536 1.535a6.053 6.053 0 0 0 1.65-4.161c0-.96-.223-1.867-.619-2.674l1.604-.09-.39 4.786a1.188 1.188 0 0 0 2.369.192l.5-6.143a1.188 1.188 0 0 0-.333-.926ZM22.083 10.978a1.989 1.989 0 1 0 0-3.978 1.989 1.989 0 0 0 0 3.978ZM15.077 24.83a3.911 3.911 0 0 1-3.907-3.906c0-.812.249-1.567.675-2.192l-1.553-1.552a6.077 6.077 0 0 0 8.529 8.529l-1.552-1.553a3.885 3.885 0 0 1-2.192.675ZM38.265 27c-1.744 0-3.224-.594-4.44-1.781C32.608 24.03 32 22.594 32 20.906c0-1.687.614-3.12 1.842-4.297 1.228-1.177 2.713-1.765 4.455-1.765 1.528 0 2.869.474 4.02 1.422 1.152.948 1.846 2.15 2.083 3.609h1.647l-2.648-7.25h-2.357V10.75h6.07v1.875h-1.679l.84 2.219h7.169l-2.293-5.969h-3.39V7h3.196c.517 0 .953.115 1.308.344.355.229.619.573.791 1.031l2.454 6.469h1.227c1.734 0 3.211.586 4.433 1.757C62.389 17.773 63 19.19 63 20.851c0 1.683-.606 3.128-1.817 4.337C59.973 26.395 58.49 27 56.735 27c-1.541 0-2.895-.5-4.062-1.5-1.167-1-1.88-2.25-2.138-3.75H44.4c-.237 1.5-.931 2.75-2.083 3.75-1.151 1-2.502 1.5-4.052 1.5Zm0-1.875c1.033 0 1.932-.323 2.696-.969a4.676 4.676 0 0 0 1.534-2.406h-3.843v-1.875h3.843a4.165 4.165 0 0 0-1.55-2.281 4.288 4.288 0 0 0-2.648-.875c-1.206 0-2.234.406-3.084 1.218-.85.813-1.276 1.803-1.276 2.97 0 1.171.42 2.167 1.26 2.988.84.82 1.862 1.23 3.068 1.23Zm9.849-5.25h2.454c.086-.48.253-1.01.5-1.594a5.273 5.273 0 0 1 1.017-1.562h-5.134l1.163 3.156Zm8.621 5.25c1.206 0 2.229-.41 3.068-1.23.84-.82 1.26-1.817 1.26-2.989 0-1.166-.42-2.156-1.26-2.968-.84-.813-1.862-1.22-3.068-1.22h-.516l1.26 3.532-1.81.594-1.388-3.5a3.374 3.374 0 0 0-1.404 1.5 4.678 4.678 0 0 0-.469 2.062c0 1.172.42 2.168 1.26 2.989.84.82 1.862 1.23 3.067 1.23Z"/></g><defs><clipPath id="a"><path fill="#fff" d="M0 0h68v34H0z"/></clipPath></defs></svg>
